svg/star_off.svg

<svg xmlns="http://www.w3.org/2000/svg" viewBox="0 0 24 24"><path d="m20.8 22.7-2.9-2.9.3 1.2-6.2-3.7L5.8 21l1.6-7L2 9.2l4.9-.4L1.1 3l1.3-1.3 19.7 19.7zM22 9.2l-7.2-.6L12 2l-2 4.8 6.9 6.9z"/></svg>

<?xml version="1.0" encoding="UTF-8"?><!DOCTYPE svg PUBLIC "-//W3C//DTD SVG 1.1//EN" "http://www.w3.org/Graphics/SVG/1.1/DTD/svg11.dtd"><svg xmlns="http://www.w3.org/2000/svg" xmlns:xlink="http://www.w3.org/1999/xlink" version="1.1" id="mdi-star-off" width="24" height="24" viewBox="0 0 24 24"><path d="M20.8 22.7L17.9 19.8L18.2 21L12 17.3L5.8 21L7.4 14L2 9.2L6.9 8.8L1.1 3L2.4 1.7L22.1 21.4L20.8 22.7M22 9.2L14.8 8.6L12 2L10 6.8L16.9 13.7L22 9.2Z" /></svg>
